X:1
T:D Major Oliver Holden, 1800
T:John Taylor, 1795 87. 87. 87. 87.
T:Praise To God No copyright. Treble-Tenor-Bass from Plain Psalmody , 1800; Counter by B. C. Johnston, 2015.
%%score [ 1 2 3 4 ]
L:1/8
M:2/4
K:D
V:1 treble nm="Treble" snm="Tr."
V:2 treble nm="Counter" snm="C."
V:3 treble-8 nm="Tenor" snm="T."
V:4 bass nm="Bass" snm="B."
V:1
 z4 | z4 | z4 | z4 | cB cd | e3 d | cB A^G | A4 | F>G FE | D3 d | dc de | f2 f2 | z4 | z4 | z4 | %15
w: ||||1.~Boun- * teous *|source of|all * our *|joy,|He * whose *|hand up-|holds * all *|na- ture,||||
w: ||||2.~Low- * ly *|bend with|con- * trite *|souls,|Here, * His *|mil- der|grace * re- *|vea- ling,||||
w: ||||3.~Deed * un- *|right- eous,|thought * of *|sin,|Seize, * O *|seize the|pro- * ferred *|bles- sing:||||
 z4 | d2 d2 | D2 E2 | F2 G2 | A2 A2 | d3 e | cd ef | g2 f2 | e4 | B2 B2 | A2 A2 | G2 A2 | B2 c2 | %28
w: |||||||||||||
w: |||||||||||||
w: |||||||||||||
 d3 e | d2 g2 | f2 e2 | d4 |] %32
w: ||||
w: ||||
w: ||||
V:2
 F>G FE | A3 G | GF GF | c2 c2 | AG AB | c3 B | AG A^G | A4 | z4 | z4 | z4 | z4 | z4 | z4 | z4 | %15
w: |||||||||||||||
w: |||||||||||||||
w: |||||||||||||||
 z4 | D2 D2 | D2 E2 | F2 G2 | A2 A2 | A3 G | ED ED | E2 A2 | A4 | G2 G2 | A2 F2 | E2 F2 | G2 A2 | %28
w: |Saints, with|pi- ous|zeal at-|ten- ding,|Now the|grate- * ful *|tri- bute|raise;|Sol- emn|songs to|heav'n a-|scen- ding,|
w: |Lo, th'e-|ter- nal|page be-|fore us|Bears the|cove- * nant *|of His|love;|Full of|mer- cy|to re-|store us,|
w: |Heart and|voice with|rap- ture|swel- ling,|Still the|song * of *|glo- ry|raise;|On the|theme im-|mor- tal|dwel- ling,|
 AG FE | FG AB | A2 G2 | F4 |] %32
w: Join * the *|u- * ni- *|ver- sal|praise.|
w: Mer- * cy *|bea- * ming *|from a-|bove.|
w: Join * the *|u- * ni- *|ver- sal|praise.|
V:3
 A>B AG | F3 B | BA GF | E2 E2 | z4 | z4 | z4 | z4 | A>B AG | F3 B | BA Bc | d2 d2 | f2 g2 | f3 e | %14
w: 1.~Praise * to *|God, the|great * Cre- *|a- tor,|||||He * whose *|hand up-|holds * all *|na- ture,|He whose|nod can|
w: 2.~Round * His *|aw- ful|foot- * stool *|knee- ling,|||||Here, * His *|mil- der|grace * re- *|vea- ling,|Here His|wrath no|
w: 3.~Eve- * ry *|sec- ret|fault * con- *|fes- sing,|||||Seize, * O *|seize the|pro- * ferred *|bles- sing:|Grace from|God, and|
 d2 c2 | B4 | d2 d2 | D2 E2 | F2 G2 | A2 A2 | f3 e | AB cd | e2 d2 | c4 | D2 D2 | D2 D2 | E2 D2 | %27
w: all de-|stroy;||||||||||||
w: thun- der|rolls;||||||||||||
w: peace with-|in;||||||||||||
 G2 E2 | f3 g | f2 e2 | d2 c2 | d4 |] %32
w: |||||
w: |||||
w: |||||
V:4
 D,2 D,2 | D,3 G, | G,F, E,D, | A,,2 A,,2 | A,2 A,2 | A,3 D, | E,2 E,2 | A,,4 | z4 | z4 | z4 | z4 | %12
 D,2 E,2 | F,3 ^A, | B,2 F,2 | B,,4 | D,2 D,2 | D,2 E,2 | F,2 G,2 | A,2 A,2 | F,3 G, | A,2 A,2 | %22
 A,2 A,2 | A,4 | G,2 G,2 | F,2 F,2 | E,2 F,2 | G,2 A,2 | F,3 G, | F,2 G,2 | A,2 A,2 | D,4 |] %32

